X:215
%%etbk:tnset id:67,pos:1,rep:3x,ant:
%%etbk:wsite www.thesession.org/tunes/display/1077
%%etbk:pldat 2015-04-22T15:52,2014-12-28T14:24,2014-11-18T16:51,2014-05-09T18:45,2014-04-30T16:54,2014-04-26T17:00,2014-02-16T13:45,2014-02-10T18:14,2014-02-07T15:20,2013-09-17T10:04
T: Munster Buttermilk
Z: Piano Box Version by Martin Fleischmann
H: Created 2013-02-19 /  Last Modified 2013-02-19
M: 6/8
L: 1/8
R: jig
K: Gmaj
|: "G"!4!g!1!Gg !5!ag!2!e | !1!d2!2!B {d}BAB | !4!d2!2!B BAB | !4!dB!1!G G2 !2!(3B!3!^c!1!d |
!4!gfg !5!age | !1!d2!2!B {d}BAB | !4!d!2!B!1!G G!2!AB | "D"!2!ABA "G"!1!G3:|
|: "G"!1!D2E !3!G2A | !5!B2B BAG | "D"!4!A!3!A!4!A !4!A!3!G!2!E | !3!GGG !4!AG!2!E |
"G"!1!D2E !3!G2A | !5!BDB !5!BAG | "D"!4!AG!2!E !1!D!2!E!3!G | !4!ABA "G"!3!G3:||


